!!!SOCIAL_FUNCTION: duck dance songs
!!!PDT:	1943
!!!LING_GROUP: Muskogean
!!!LANG: Non-Tone
Specific Region: Oklahoma, California, Mississippi, Louisiana, Texas, Alabama
!!!REG: Southeast
!!!COM: Anon.
!!!OTL: Duck Dance Song (a)
!!!ODT: <1933//
!!!MPN: Lapintabeseihoke [Kills it Himself, Sidney Wesley]
!!!MLC: Philadelphia, Mississippi, United States of America
!! Song was recorded in January 1933.
!!!AGN: monody
!!!AMT: irregular
!!!RWG: Transcribed pitches, durations, and meters are only approximate.
**kern
*ICvox
*Imale
*clefF4
*k[f#]
*M2/4
*MM76
*[A,B,C,B]
*>A
=1-
4B
8.G
16G
*M3/4
=2
8D
16G
16G
16G
16G
8G
16G
16G
8G
*M2/4
=3
8.E
16E
8E
8r
=4
4B
8G
8r
=5
4B
8G
8D
*M5/8
=6
8G
16G
16G
8G
16G
16G
8G
*M2/4
=7
4E
8E
8r
=8
4B
8G
8B
=9
12A
12G
12E
8E
16E
16r
=10
8.A
16A
8G
16G
16r
=11
8.G
16E
8E
16E
16r
=12
8G
16A
16A
8G
16G
16r
=13
8.G
16E
8E
16E
16r
=14
8A
16A
16A
8G
16G
16r
=15
8.G
16E
8E
16E
16r
=16
8G
16A
16A
8G
16G
16r
=17
8.G
16E
8E
16E
16r
*>B
=!|:18
4B
8G
8B
=19
12A
12G
12E
8E
16E
16r
=20
8A
16A
16A
8G
16G
16r
=21
8.G
16E
8E
16E
16r
==22
*>C
8G
16A
16A
8G
16G
16r
=23
8.G
16E
8E
16E
16r
=:|!
*-
!!!CNT: Choctaw
!!!TXO: Choctaw
!!!OCY: United States
!!!OCL: Frances Densmore
!!!YOR: Frances Densmore, "Choctaw Music"
!!!YOR: Bulletin 136, page 150, No. 29
!!!PPR: Smithsonian Institution, Bureau of American Ethnology
!!!PPR: Government Printing Office
!!!PDT: 1943
!!!PPP: Washington, DC, United States of America
!!!YEC: Electronic Copyright 2000 David Huron
!!!YER: August 2000
!!!YEN: United States of America
!!!ENC: David Huron
!!!RDT: August 28, 2000
!!!EEV: Release 1.0
!!!AIN: vox
